components/ui/icons/src/main/assets/mozac_error_asleep.svg

<svg viewBox="0 0 256 70" xmlns="http://www.w3.org/2000/svg" xmlns:xlink="http://www.w3.org/1999/xlink"><radialGradient id="a" cx="143.54" cy="81.07" gradientTransform="matrix(1 0 0 .7 0 24.46)" gradientUnits="userSpaceOnUse" r="146.71"><stop offset=".08" stop-color="#cdcdd4" stop-opacity="0"/><stop offset=".36" stop-color="#cdcdd4" stop-opacity=".02"/><stop offset=".65" stop-color="#cdcdd4" stop-opacity=".08"/><stop offset=".94" stop-color="#cdcdd4" stop-opacity=".18"/><stop offset="1" stop-color="#cdcdd4" stop-opacity=".2"/></radialGradient><linearGradient id="b" gradientTransform="matrix(-1 0 0 1 -471.81 0)" gradientUnits="userSpaceOnUse" x1="-496.29" x2="-547.1" y1="61.33" y2="10.52"><stop offset="0" stop-color="#ffd567"/><stop offset="1" stop-color="#fff361"/></linearGradient><linearGradient id="c" gradientTransform="matrix(-1 0 0 1 -471.81 0)" gradientUnits="userSpaceOnUse" x1="-572.12" x2="-454.86" y1="-14.51" y2="102.75"><stop offset=".4" stop-color="#ffd567"/><stop offset=".86" stop-color="#ffc456"/><stop offset="1" stop-color="#ffbd4f"/></linearGradient><linearGradient id="d" gradientUnits="userSpaceOnUse" x1="14.23" x2="63.25" y1="9.62" y2="58.64"><stop offset=".25" stop-color="#ffd567"/><stop offset="1" stop-color="#ffa436"/></linearGradient><linearGradient id="e" x1="29.38" x2="78.4" xlink:href="#d" y1="-5.52" y2="43.5"/><path d="m4.45 35.06a23.24 23.24 0 0 1 23.15-23.33l174.6-.5a23.25 23.25 0 1 1 .18 46.49l-174.59.5a23.25 23.25 0 0 1 -23.34-23.16z" fill="url(#a)"/><path d="m49.79 56.33a8 8 0 0 1 -7.92 8h-31.82a6.08 6.08 0 0 1 0-12.15 6.26 6.26 0 0 1 1.45.18 6.48 6.48 0 0 1 -.16-1.41 6.26 6.26 0 0 1 9.81-5.16 10.53 10.53 0 0 1 20.72 2.64 8 8 0 0 1 7.92 7.9z" fill="#cdcdd4" opacity=".15"/><path d="m188.39 27.89a8.76 8.76 0 0 0 -2.19.27 9.25 9.25 0 0 0 .24-2.12 9.45 9.45 0 0 0 -14.78-7.78 15.88 15.88 0 0 0 -31.24 4 11.93 11.93 0 1 0 0 23.85h48a9.11 9.11 0 1 0 0-18.21z" fill="#cdcdd4" opacity=".15"/><path d="m50.35 4.45a31 31 0 0 1 31 31v1.27a3.67 3.67 0 0 1 -.53 7.28h-.66a31 31 0 1 1 -29.81-39.55z" fill="url(#b)"/><path d="m19.34 36.73c0-.43 0-.85 0-1.27a30.86 30.86 0 0 1 8.55-21.37 31.87 31.87 0 0 0 43.82 43.85 31 31 0 0 1 -51.18-13.89h-.7a3.68 3.68 0 0 1 -.49-7.32z" fill="url(#c)"/><path d="m31.48 31.9a1 1 0 0 1 -.69-.26 1.06 1.06 0 0 1 -.08-1.49 6.36 6.36 0 0 1 4.75-2.15 6.38 6.38 0 0 1 4.75 2.13 1.05 1.05 0 1 1 -1.58 1.39 4.25 4.25 0 0 0 -3.17-1.43 4.21 4.21 0 0 0 -3.17 1.43 1.12 1.12 0 0 1 -.81.38z" fill="url(#d)"/><path d="m69.68 31.9a1 1 0 0 1 -.79-.36 4.25 4.25 0 0 0 -3.17-1.43 4.21 4.21 0 0 0 -3.17 1.43 1.05 1.05 0 0 1 -1.55-1.4 6.36 6.36 0 0 1 4.74-2.14 6.36 6.36 0 0 1 4.75 2.13 1 1 0 0 1 -.1 1.48 1 1 0 0 1 -.71.29z" fill="url(#e)"/><g fill="#cc3d00"><path d="m70 37.1a1.41 1.41 0 0 0 -2 .12 3 3 0 0 1 -2.25 1 3 3 0 0 1 -2.24-1 1.42 1.42 0 0 0 -2-.12 1.39 1.39 0 0 0 -.34 1.62 1.46 1.46 0 0 0 .09.39 4.8 4.8 0 0 0 9 0 1.07 1.07 0 0 0 .1-.39 1.36 1.36 0 0 0 -.36-1.62z"/><path d="m39.69 37.1a1.41 1.41 0 0 0 -2 .12 3 3 0 0 1 -2.24 1 3 3 0 0 1 -2.25-1 1.41 1.41 0 0 0 -2-.12 1.38 1.38 0 0 0 -.35 1.62 1.18 1.18 0 0 0 .1.39 4.91 4.91 0 0 0 4.47 3.06 4.92 4.92 0 0 0 4.48-3.06 1.3 1.3 0 0 0 .09-.39 1.34 1.34 0 0 0 -.3-1.62z"/><path d="m55 52a4.34 4.34 0 1 1 -8.67 0c0-2.4 1.94-3.4 4.34-3.4s4.33.98 4.33 3.4z"/></g><path d="m66.68 16.08h-6.29a1.15 1.15 0 0 1 -.82-2l4.43-4.4h-3.4a1.15 1.15 0 1 1 0-2.3h6.2a1.15 1.15 0 0 1 .82 2l-4.43 4.43h3.5a1.15 1.15 0 1 1 0 2.3z" fill="#e31587"/><path d="m75.48 6.52h-4.09a.87.87 0 0 1 -.61-1.52l2.69-2.69h-1.94a.87.87 0 1 1 0-1.74h4a.84.84 0 0 1 .8.54.85.85 0 0 1 -.19.94l-2.66 2.73h2a.87.87 0 1 1 0 1.74z" fill="#ff4f5e"/><path d="m80 24.27h-8.5a1.72 1.72 0 0 1 -1.23-2.95l5.73-5.71h-4.24a1.73 1.73 0 0 1 0-3.46h8.4a1.73 1.73 0 0 1 1.23 2.95l-5.71 5.71h4.32a1.73 1.73 0 0 1 0 3.46z" fill="#c60084"/></svg>

<svg id="Layer_1" data-name="Layer 1" xmlns="http://www.w3.org/2000/svg" xmlns:xlink="http://www.w3.org/1999/xlink" viewBox="0 0 256 70"><defs><style>.cls-1{fill:url(#radial-gradient);}.cls-2{fill:#cdcdd4;opacity:0.15;}.cls-3{fill:url(#linear-gradient);}.cls-4{fill:url(#linear-gradient-2);}.cls-5{fill:url(#linear-gradient-3);}.cls-6{fill:url(#linear-gradient-4);}.cls-7{fill:#cc3d00;}.cls-8{fill:#e31587;}.cls-9{fill:#ff4f5e;}.cls-10{fill:#c60084;}</style><radialGradient id="radial-gradient" cx="143.54" cy="81.07" r="146.71" gradientTransform="translate(0 24.46) scale(1 0.7)" gradientUnits="userSpaceOnUse"><stop offset="0.08" stop-color="#cdcdd4" stop-opacity="0"/><stop offset="0.36" stop-color="#cdcdd4" stop-opacity="0.02"/><stop offset="0.65" stop-color="#cdcdd4" stop-opacity="0.08"/><stop offset="0.94" stop-color="#cdcdd4" stop-opacity="0.18"/><stop offset="1" stop-color="#cdcdd4" stop-opacity="0.2"/></radialGradient><linearGradient id="linear-gradient" x1="-496.29" y1="61.33" x2="-547.1" y2="10.52" gradientTransform="matrix(-1, 0, 0, 1, -471.81, 0)" gradientUnits="userSpaceOnUse"><stop offset="0" stop-color="#ffd567"/><stop offset="1" stop-color="#fff361"/></linearGradient><linearGradient id="linear-gradient-2" x1="-572.12" y1="-14.51" x2="-454.86" y2="102.75" gradientTransform="matrix(-1, 0, 0, 1, -471.81, 0)" gradientUnits="userSpaceOnUse"><stop offset="0.4" stop-color="#ffd567"/><stop offset="0.86" stop-color="#ffc456"/><stop offset="1" stop-color="#ffbd4f"/></linearGradient><linearGradient id="linear-gradient-3" x1="14.23" y1="9.62" x2="63.25" y2="58.64" gradientUnits="userSpaceOnUse"><stop offset="0.25" stop-color="#ffd567"/><stop offset="1" stop-color="#ffa436"/></linearGradient><linearGradient id="linear-gradient-4" x1="29.38" y1="-5.52" x2="78.4" y2="43.5" xlink:href="#linear-gradient-3"/></defs><title>fx-fenix_error_2</title><path class="cls-1" d="M4.45,35.06A23.24,23.24,0,0,1,27.6,11.73l174.6-.5a23.25,23.25,0,1,1,.18,46.49l-174.59.5A23.25,23.25,0,0,1,4.45,35.06Z"/><path class="cls-2" d="M49.79,56.33a8,8,0,0,1-7.92,8H10.05a6.08,6.08,0,0,1,0-12.15,6.26,6.26,0,0,1,1.45.18,6.48,6.48,0,0,1-.16-1.41,6.26,6.26,0,0,1,9.81-5.16,10.53,10.53,0,0,1,20.72,2.64A8,8,0,0,1,49.79,56.33Z"/><path class="cls-2" d="M188.39,27.89a8.76,8.76,0,0,0-2.19.27,9.25,9.25,0,0,0,.24-2.12,9.45,9.45,0,0,0-14.78-7.78,15.88,15.88,0,0,0-31.24,4,11.93,11.93,0,1,0,0,23.85h48a9.11,9.11,0,1,0,0-18.21Z"/><path class="cls-3" d="M50.35,4.45a31,31,0,0,1,31,31c0,.42,0,.84,0,1.27A3.67,3.67,0,0,1,80.82,44h-.66A31,31,0,1,1,50.35,4.45Z"/><path class="cls-4" d="M19.34,36.73c0-.43,0-.85,0-1.27a30.86,30.86,0,0,1,8.55-21.37A31.87,31.87,0,0,0,71.71,57.94,31,31,0,0,1,20.53,44.05h-.7a3.68,3.68,0,0,1-.49-7.32Z"/><path class="cls-5" d="M31.48,31.9a1,1,0,0,1-.69-.26,1.06,1.06,0,0,1-.08-1.49A6.36,6.36,0,0,1,35.46,28h0a6.38,6.38,0,0,1,4.75,2.13,1.05,1.05,0,1,1-1.58,1.39,4.25,4.25,0,0,0-3.17-1.43h0a4.21,4.21,0,0,0-3.17,1.43A1.12,1.12,0,0,1,31.48,31.9Z"/><path class="cls-6" d="M69.68,31.9a1,1,0,0,1-.79-.36,4.25,4.25,0,0,0-3.17-1.43h0a4.21,4.21,0,0,0-3.17,1.43A1.05,1.05,0,0,1,61,30.14,6.36,6.36,0,0,1,65.74,28h0a6.36,6.36,0,0,1,4.75,2.13,1,1,0,0,1-.1,1.48A1,1,0,0,1,69.68,31.9Z"/><path class="cls-7" d="M70,37.1a1.41,1.41,0,0,0-2,.12,3,3,0,0,1-2.25,1,3,3,0,0,1-2.24-1,1.42,1.42,0,0,0-2-.12,1.39,1.39,0,0,0-.34,1.62,1.46,1.46,0,0,0,.09.39,4.8,4.8,0,0,0,9,0,1.07,1.07,0,0,0,.1-.39A1.36,1.36,0,0,0,70,37.1Z"/><path class="cls-7" d="M39.69,37.1a1.41,1.41,0,0,0-2,.12,3,3,0,0,1-2.24,1h0a3,3,0,0,1-2.25-1,1.41,1.41,0,0,0-2-.12,1.38,1.38,0,0,0-.35,1.62,1.18,1.18,0,0,0,.1.39,4.91,4.91,0,0,0,4.47,3.06h0a4.92,4.92,0,0,0,4.48-3.06,1.3,1.3,0,0,0,.09-.39A1.34,1.34,0,0,0,39.69,37.1Z"/><path class="cls-7" d="M55,52a4.34,4.34,0,1,1-8.67,0c0-2.4,1.94-3.4,4.34-3.4S55,49.58,55,52Z"/><path class="cls-8" d="M66.68,16.08H60.39a1.15,1.15,0,0,1-.82-2L64,9.68H60.6a1.15,1.15,0,1,1,0-2.3h6.2a1.15,1.15,0,0,1,.82,2l-4.43,4.43h3.5a1.15,1.15,0,1,1,0,2.3Z"/><path class="cls-9" d="M75.48,6.52H71.39A.87.87,0,0,1,70.78,5l2.69-2.69H71.53a.87.87,0,1,1,0-1.74h4a.84.84,0,0,1,.8.54.85.85,0,0,1-.19.94L73.48,4.78h2a.87.87,0,1,1,0,1.74Z"/><path class="cls-10" d="M80,24.27H71.5a1.72,1.72,0,0,1-1.23-2.95L76,15.61H71.76a1.73,1.73,0,0,1,0-3.46h8.4a1.73,1.73,0,0,1,1.23,2.95l-5.71,5.71H80a1.73,1.73,0,0,1,0,3.46Z"/></svg>
